;FLAVOR:RepRap
;TIME:14263
;Filament used: 1.51515m
;Layer height: 0.3
;Generated with Cura_SteamEngine 2.4.0
M104 S205
M109 S205
G28 ;Home
G1 Z15.0 F6000 ;Move the platform down 15mm
;Prime the extruder
G92 E0
G1 F200 E3
G92 E0
;LAYER_COUNT:73
;LAYER:-6
M107
G1 F1500 E-6.5
G0 F240 X135.072 Y135.203 Z0.36
G1 F1500 E0
G1 F90 X135.867 Y134.455 E0.1307
G1 X135.965 Y134.369 E0.14631
G1 X136.697 Y133.771 E0.25949
G1 X136.841 Y133.661 E0.28119
G1 X137.589 Y133.126 E0.3913
G1 X137.685 Y133.062 E0.40512
G1 X138.618 Y132.485 E0.53647
G1 X138.713 Y132.43 E0.54961
G1 X139.616 Y131.957 E0.67167
G1 X139.743 Y131.896 E0.68854
G1 X141.061 Y131.337 E0.85996
G1 X141.326 Y131.239 E0.89379
G1 X142.847 Y130.773 E1.08426
G1 X143.006 Y130.733 E1.10389
G1 X143.977 Y130.526 E1.22277
G1 X144.088 Y130.508 E1.23623
G1 X145.032 Y130.371 E1.35045
G1 X145.131 Y130.359 E1.36239
G1 X146.224 Y130.275 E1.49365
G1 X146.362 Y130.269 E1.51019
G1 X146.857 Y130.257 E1.56948
G1 X153.051 Y130.208 E2.31115
G1 X154.557 Y130.273 E2.49164
G1 X154.691 Y130.286 E2.50776
G1 X155.67 Y130.411 E2.62593
G1 X155.842 Y130.44 E2.64682
G1 X155.842 Y130.439 E2.64694
G1 X156.823 Y130.634 E2.7667
G1 X156.946 Y130.662 E2.7818
G1 X158.428 Y131.094 E2.96663
G1 X158.717 Y131.195 E3.00329
G1 X160.079 Y131.748 E3.1793
G1 X160.197 Y131.803 E3.19489
G1 X161.126 Y132.278 E3.31982
G1 X161.237 Y132.339 E3.33499
G1 X162.111 Y132.863 E3.457
G1 X162.234 Y132.943 E3.47457
G1 X163.024 Y133.493 E3.58983
G1 X163.142 Y133.581 E3.60746
G1 X163.993 Y134.267 E3.73834
G1 X164.097 Y134.356 E3.75473
G1 X164.808 Y135.016 E3.87088
G1 X164.884 Y135.092 E3.88375
G1 X165.596 Y135.845 E4.00784
G1 X165.66 Y135.916 E4.01928
G1 X166.662 Y137.185 E4.21289
G1 X166.802 Y137.382 E4.24182
G1 X167.597 Y138.63 E4.419
G1 X167.662 Y138.745 E4.43482
G1 X168.142 Y139.662 E4.55875
G1 X168.208 Y139.801 E4.57717
G1 X168.622 Y140.75 E4.70114
G1 X168.666 Y140.859 E4.71522
G1 X168.969 Y141.701 E4.82236
G1 X169.025 Y141.873 E4.84402
G1 X169.315 Y142.882 E4.96973
G1 X169.339 Y142.979 E4.98169
G1 X169.338 Y142.979 E4.98181
G1 X169.571 Y144.092 E5.11797
G1 X169.598 Y144.246 E5.13669
G1 X169.726 Y145.191 E5.25087
G1 X169.725 Y145.191 E5.25099
G1 X169.744 Y145.373 E5.2729
G1 X169.808 Y146.346 E5.38966
G1 X169.814 Y146.522 E5.41074
G1 X169.823 Y147.034 E5.47206
G1 X169.818 Y153.076 E6.19551
G1 X169.747 Y154.53 E6.36981
G1 X169.736 Y154.64 E6.38305
G1 X169.493 Y156.231 E6.57576
G1 X169.433 Y156.52 E6.6111
G1 X169.175 Y157.563 E6.73975
G1 X168.904 Y158.413 E6.84657
G1 X168.8 Y158.705 E6.88369
G1 X168.233 Y160.08 E7.06177
G1 X168.191 Y160.17 E7.07367
G1 X167.704 Y161.116 E7.20106
G1 X167.646 Y161.221 E7.21543
G1 X167.093 Y162.131 E7.34293
G1 X167.011 Y162.254 E7.36063
G1 X166.442 Y163.064 E7.47915
G1 X166.384 Y163.14 E7.4906
G1 X165.723 Y163.953 E7.61606
G1 X165.625 Y164.067 E7.63406
G1 X164.928 Y164.812 E7.75622
G1 X164.829 Y164.911 E7.77298
G1 X164.11 Y165.583 E7.89082
G1 X163.968 Y165.706 E7.91331
G1 X163.208 Y166.324 E8.0306
G1 X163.099 Y166.407 E8.04701
G1 X162.299 Y166.97 E8.16414
G1 X162.173 Y167.053 E8.18221
G1 X161.296 Y167.59 E8.30534
G1 X161.182 Y167.654 E8.32099
G1 X160.27 Y168.127 E8.444
G1 X160.116 Y168.2 E8.46441
G1 X159.152 Y168.615 E8.59008
G1 X159.028 Y168.663 E8.606
G1 X158.23 Y168.948 E8.70746
G1 X158.23 Y168.949 E8.70758
G1 X158.119 Y168.986 E8.72159
G1 X158.119 Y168.985 E8.72171
G1 X157.076 Y169.283 E8.85159
G1 X156.923 Y169.32 E8.87044
G1 X155.868 Y169.542 E8.99953
G1 X155.749 Y169.562 E9.01397
G1 X154.806 Y169.692 E9.12795
G1 X154.644 Y169.709 E9.14746
G1 X153.576 Y169.782 E9.27563
G1 X153.448 Y169.786 E9.29097
G1 X152.944 Y169.794 E9.35132
G1 X146.642 Y169.791 E10.1059
G1 X145.579 Y169.751 E10.23327
G1 X144.652 Y169.654 E10.34487
G1 X144.402 Y169.62 E10.37508
G1 X143.343 Y169.436 E10.50378
G1 X142.413 Y169.206 E10.61849
G1 X142.136 Y169.127 E10.65298
G1 X141.121 Y168.801 E10.78063
G1 X140.394 Y168.514 E10.87422
G1 X140.144 Y168.409 E10.90668
G1 X139.152 Y167.941 E11.03802
G1 X138.687 Y167.691 E11.10123
G1 X138.588 Y167.635 E11.11485
G1 X137.28 Y166.805 E11.30034
G1 X137.093 Y166.673 E11.32774
G1 X135.96 Y165.786 E11.50003
G1 X135.883 Y165.718 E11.51233
G1 X134.706 Y164.584 E11.70803
G1 X134.552 Y164.418 E11.73514
G1 X133.6 Y163.288 E11.91206
G1 X133.54 Y163.21 E11.92385
G1 X132.639 Y161.885 E12.1157
G1 X132.525 Y161.696 E12.14213
G1 X131.826 Y160.403 E12.31812
G1 X131.771 Y160.289 E12.33328
G1 X131.39 Y159.421 E12.44678
G1 X131.353 Y159.328 E12.45877
G1 X130.96 Y158.227 E12.59874
G1 X130.926 Y158.118 E12.61241
G1 X130.683 Y157.255 E12.71977
G1 X130.649 Y157.118 E12.73667
G1 X130.427 Y156.051 E12.86716
G1 X130.401 Y155.902 E12.88527
G1 X130.272 Y154.947 E13.00066
G1 X130.261 Y154.843 E13.01318
G1 X130.191 Y153.789 E13.13966
G1 X130.184 Y153.574 E13.16542
G1 X130.177 Y153.135 E13.21799
G1 X130.181 Y146.895 E13.96515
G1 X130.222 Y145.83 E14.09276
G1 X130.32 Y144.894 E14.20544
G1 X130.353 Y144.652 E14.23469
G1 X130.63 Y143.188 E14.41309
G1 X130.664 Y143.047 E14.43046
G1 X131.092 Y141.601 E14.61102
G1 X131.186 Y141.333 E14.64503
G1 X131.752 Y139.956 E14.82329
G1 X131.811 Y139.83 E14.83995
G1 X132.241 Y138.989 E14.95305
G1 X132.316 Y138.852 E14.97175
G1 X133.148 Y137.522 E15.15959
G1 X133.309 Y137.293 E15.19311
G1 X134.242 Y136.1 E15.37445
G1 X134.331 Y135.997 E15.39075
G1 X134.997 Y135.279 E15.50801
G1 X135.072 Y135.203 E15.5208
G0 F240 X134.4 Y135.922
G1 F90 X134.4 Y164.237 E18.91114
G0 F240 X136 Y165.817
G1 F90 X136 Y134.34 E22.68008
G0 F240 X137.6 Y133.118
G1 F90 X137.6 Y167.008 E26.73795
G0 F240 X139.2 Y167.963
G1 F90 X139.2 Y132.174 E31.0232
G0 F240 X140.8 Y131.447
G1 F90 X140.8 Y168.674 E35.48063
G0 F240 X142.4 Y169.202
G1 F90 X142.4 Y130.909 E40.0657
G0 F240 X144 Y130.522
G1 F90 X144 Y169.55 E44.73878
G0 F240 X145.6 Y169.751
G1 F90 X145.6 Y130.322 E49.45987
G0 F240 X147.2 Y130.254
G1 F90 X147.2 Y169.791 E54.19389
G0 F240 X148.8 Y169.792
G1 F90 X148.8 Y130.241 E58.92958
G0 F240 X150.4 Y130.228
G1 F90 X150.4 Y169.792 E63.66684
G0 F240 X152 Y169.793
G1 F90 X152 Y130.216 E68.40565
G0 F240 X153.6 Y130.232
G1 F90 X153.6 Y169.781 E73.14111
G0 F240 X155.2 Y169.638
G1 F90 X155.2 Y130.351 E77.8452
G0 F240 X156.8 Y130.63
G1 F90 X156.8 Y169.346 E82.48091
G0 F240 X158.4 Y168.888
G1 F90 X158.4 Y131.086 E87.00719
G0 F240 X160 Y131.716
G1 F90 X160 Y168.25 E91.38164
G0 F240 X161.6 Y167.404
G1 F90 X161.6 Y132.557 E95.5541
G0 F240 X163.2 Y133.628
G1 F90 X163.2 Y166.331 E99.46984
G0 F240 X164.8 Y164.939
G1 F90 X164.8 Y135.009 E103.05356
G0 F240 X166.4 Y136.854
G1 F90 X166.4 Y163.12 E106.19856
G0 F240 X168 Y160.542
G1 F90 X168 Y139.391 E108.7311
G0 F240 X169.6 Y144.261
G1 F90 X169.6 Y155.531 E110.08053
G0 F240 X132.8 Y162.121
G1 F90 X132.8 Y138.078 E112.95936
G0 F240 X131.2 Y141.298
M104 S200
G1 F90 X131.2 Y158.899 E115.06684
;TIME_ELAPSED:714.501116
;LAYER:-5
M140 S60
G0 F240 X131.352 Y159.327 Z0.809
;TYPE:SUPPORT
G1 F90 X130.96 Y158.226 E115.24137
G1 X130.925 Y158.116 E115.25861
G1 X130.799 Y157.669 E115.32796
G1 X142.303 Y169.173 E117.75756
G1 X142.412 Y169.204 E117.77448
G1 X143.343 Y169.435 E117.91773
G1 X144.113 Y169.569 E118.03445
G1 X130.394 Y155.849 E120.93195
G1 X130.272 Y154.946 E121.06803
G1 X130.26 Y154.842 E121.08367
G1 X130.222 Y154.263 E121.17032
G1 X145.713 Y169.755 E124.44206
G1 X146.641 Y169.789 E124.58074
G1 X147.162 Y169.789 E124.65854
G1 X130.176 Y152.804 E128.24581
G1 X130.177 Y151.39 E128.45697
G1 X148.577 Y169.79 E132.34298
G1 X149.992 Y169.791 E132.55429
G1 X130.179 Y149.978 E136.73871
G1 X130.179 Y148.564 E136.94988
G1 X151.407 Y169.791 E141.43304
G1 X152.822 Y169.792 E141.64435
G1 X130.18 Y147.151 E146.42614
G1 X130.181 Y146.894 E146.46452
G1 X130.222 Y145.829 E146.62368
G1 X130.226 Y145.782 E146.63073
G1 X154.183 Y169.739 E151.69035
G1 X154.644 Y169.708 E151.75935
G1 X154.806 Y169.69 E151.78369
G1 X155.458 Y169.6 E151.88198
G1 X130.377 Y144.519 E157.17898
G1 X130.602 Y143.33 E157.3597
G1 X156.648 Y169.376 E162.8605
G1 X156.922 Y169.319 E162.9023
G1 X157.075 Y169.282 E162.9258
G1 X157.769 Y169.083 E163.03362
G1 X130.908 Y142.221 E168.70666
G1 X131.092 Y141.6 E168.80338
G1 X131.185 Y141.332 E168.84575
G1 X131.257 Y141.156 E168.87414
G1 X158.831 Y168.731 E174.69776
G1 X159.028 Y168.661 E174.72899
G1 X159.152 Y168.614 E174.74879
G1 X159.834 Y168.319 E174.85976
G1 X131.669 Y140.154 E180.80809
G1 X131.751 Y139.955 E180.84023
G1 X131.811 Y139.829 E180.86107
G1 X132.131 Y139.202 E180.9662
G1 X160.786 Y167.857 E187.01801
G1 X161.182 Y167.653 E187.08454
G1 X161.296 Y167.589 E187.10406
G1 X161.69 Y167.347 E187.17311
G1 X132.653 Y138.31 E193.30561
G1 X133.148 Y137.52 E193.44483
G1 X133.201 Y137.443 E193.45879
G1 X162.549 Y166.792 E199.65707
G1 X163.098 Y166.406 E199.75729
G1 X163.208 Y166.323 E199.77787
G1 X163.365 Y166.194 E199.80822
G1 X133.815 Y136.644 E206.04905
G1 X134.242 Y136.098 E206.15257
G1 X134.33 Y135.996 E206.17268
G1 X134.451 Y135.865 E206.19932
G1 X164.139 Y165.554 E212.4694
G1 X164.829 Y164.91 E212.61035
G1 X164.869 Y164.869 E212.61891
G1 X135.139 Y135.139 E218.89776
G1 X135.866 Y134.454 E219.04693
G1 X135.868 Y134.454 E219.04723
G1 X165.555 Y164.141 E225.317
G1 X165.624 Y164.067 E225.33211
G1 X165.722 Y163.953 E225.35456
G1 X166.197 Y163.369 E225.46698
G1 X136.643 Y133.815 E231.70866
G1 X136.695 Y133.771 E231.71883
G1 X136.84 Y133.66 E231.7461
G1 X137.46 Y133.218 E231.85981
G1 X166.798 Y162.556 E238.05588
G1 X167.01 Y162.254 E238.11098
G1 X167.092 Y162.131 E238.13306
G1 X167.355 Y161.699 E238.20859
G1 X138.324 Y132.667 E244.33992
G1 X138.616 Y132.484 E244.39138
G1 X138.712 Y132.43 E244.40783
G1 X139.23 Y132.159 E244.49513
G1 X167.867 Y160.796 E250.54315
G1 X168.19 Y160.17 E250.64834
G1 X168.232 Y160.079 E250.66331
G1 X168.33 Y159.845 E250.7012
G1 X140.19 Y131.705 E256.64425
G1 X141.06 Y131.337 E256.78532
G1 X141.189 Y131.289 E256.80587
G1 X168.743 Y158.843 E262.62516
G1 X168.799 Y158.705 E262.6474
G1 X168.903 Y158.413 E262.69369
G1 X169.102 Y157.788 E262.79165
G1 X142.264 Y130.951 E268.45961
G1 X142.846 Y130.773 E268.5505
G1 X143.005 Y130.732 E268.57503
G1 X143.38 Y130.652 E268.63229
G1 X169.395 Y156.667 E274.12655
G1 X169.431 Y156.52 E274.14915
G1 X169.492 Y156.231 E274.19326
G1 X169.609 Y155.467 E274.30868
G1 X144.579 Y130.437 E279.59491
G1 X145.031 Y130.371 E279.66313
G1 X145.13 Y130.358 E279.67804
G1 X145.859 Y130.303 E279.78722
G1 X169.762 Y154.206 E284.83543
G1 X169.817 Y153.075 E285.00453
G1 X169.818 Y152.847 E285.03858
G1 X147.225 Y130.254 E289.81013
G1 X148.628 Y130.243 E290.01966
G1 X169.818 Y151.433 E294.4949
G1 X169.82 Y150.021 E294.70576
G1 X150.031 Y130.232 E298.88512
G1 X151.434 Y130.221 E299.09465
G1 X169.821 Y148.608 E302.9779
G1 X169.822 Y147.194 E303.18907
G1 X152.837 Y130.21 E306.77612
G0 F240 X153.05 Y130.208
G1 F90 X154.304 Y130.262 E306.96357
G1 X169.766 Y145.724 E310.22908
G1 X169.743 Y145.373 E310.28161
G1 X169.724 Y145.19 E310.30908
G1 X169.597 Y144.246 E310.45133
G1 X169.575 Y144.119 E310.47058
G1 X155.908 Y130.452 E313.35699
G1 X156.822 Y130.633 E313.49613
G1 X156.945 Y130.662 E313.51501
G1 X157.773 Y130.903 E313.64379
G1 X169.137 Y142.267 E316.04382
G1 X169.024 Y141.873 E316.10503
G1 X168.968 Y141.7 E316.13219
G1 X168.665 Y140.859 E316.26568
G1 X168.621 Y140.75 E316.28324
G1 X168.302 Y140.017 E316.40262
G1 X160 Y131.716 E318.15586
G1 X160.078 Y131.747 E318.16839
G1 X160.196 Y131.803 E318.1879
G1 X161.124 Y132.277 E318.34352
G1 X161.235 Y132.339 E318.3625
G1 X162.11 Y132.863 E318.51481
G1 X162.232 Y132.943 E318.5366
G1 X163.023 Y133.493 E318.68048
G1 X163.14 Y133.58 E318.70225
G1 X163.854 Y134.155 E318.83916
G1 X165.829 Y136.13 E319.25627
G0 F240 X169.724 Y145.19
G0 X140.105 Y168.389
G1 F90 X139.152 Y167.939 E319.41365
G1 X138.686 Y167.689 E319.49263
G1 X138.587 Y167.634 E319.50954
G1 X137.279 Y166.804 E319.74088
G1 X137.092 Y166.672 E319.77507
G1 X136.545 Y166.243 E319.87888
G1 X133.66 Y163.358 E320.48818
G0 F240 X131.588 Y159.872
G1 F90 X140.105 Y168.389 E322.28693
G0 F240 X131.588 Y159.872
G1 F90 X131.39 Y159.42 E322.36063
G1 X131.352 Y159.327 E322.37563
;TIME_ELAPSED:1656.104791
;LAYER:-4
G0 F240 X131.094 Y159.2 Z1.109
G1 F120 X168.812 Y159.2 E324.25739
G1 X168.647 Y159.6 E324.27898
G1 X131.25 Y159.6 E326.14472
G1 X131.425 Y160 E326.1665
G1 X168.482 Y160 E328.01528
G1 X168.419 Y160.155 E328.02363
G1 X168.369 Y160.261 E328.02948
G1 X168.297 Y160.4 E328.03729
G1 X131.602 Y160.4 E329.86801
G1 X131.65 Y160.498 E329.87345
G1 X131.813 Y160.8 E329.89058
G1 X168.091 Y160.8 E331.70049
G1 X167.885 Y161.2 E331.72294
G1 X132.029 Y161.2 E333.5118
G1 X132.246 Y161.6 E333.53451
G1 X167.649 Y161.6 E335.30077
G1 X167.406 Y162 E335.32412
G1 X132.474 Y162 E337.06688
G1 X132.746 Y162.4 E337.09102
G1 X167.152 Y162.4 E338.80754
G1 X166.871 Y162.8 E338.83193
G1 X133.019 Y162.8 E340.52081
G1 X133.291 Y163.2 E340.54494
G1 X166.588 Y163.2 E342.20614
G1 X166.539 Y163.266 E342.21024
G1 X166.267 Y163.6 E342.23173
G1 X133.601 Y163.6 E343.86144
G1 X133.938 Y164 E343.88754
G1 X165.942 Y164 E345.48422
G1 X165.875 Y164.083 E345.48954
G1 X165.779 Y164.194 E345.49686
G1 X165.586 Y164.4 E345.51095
G1 X134.275 Y164.4 E347.07306
G1 X134.393 Y164.54 E347.08219
G1 X134.572 Y164.733 E347.09533
G1 X134.641 Y164.8 E347.10013
G1 X165.212 Y164.8 E348.62532
G1 X165.065 Y164.958 E348.63609
G1 X165.066 Y164.958 E348.63614
G1 X164.976 Y165.048 E348.64249
G1 X164.813 Y165.2 E348.6536
G1 X135.056 Y165.2 E350.13819
G1 X135.471 Y165.6 E350.16694
G1 X164.384 Y165.6 E351.60942
G1 X164.241 Y165.734 E351.6192
G1 X164.104 Y165.853 E351.62825
G1 X163.923 Y166 E351.63988
G1 X135.907 Y166 E353.03761
G1 X136.418 Y166.4 E353.06998
G1 X163.431 Y166.4 E354.41767
G1 X163.329 Y166.483 E354.42423
G1 X163.214 Y166.57 E354.43142
G1 X162.887 Y166.8 E354.45137
G1 X136.929 Y166.8 E355.74642
G1 X136.961 Y166.825 E355.74844
G1 X137.173 Y166.974 E355.76137
G1 X137.529 Y167.2 E355.78241
G1 X162.312 Y167.2 E357.01884
G1 X162.278 Y167.223 E357.02088
G1 X161.662 Y167.6 E357.05692
G1 X138.159 Y167.6 E358.22949
G1 X138.478 Y167.802 E358.24832
G1 X138.585 Y167.863 E358.25447
G1 X138.839 Y168 E358.26887
G1 X160.948 Y168 E359.37189
G1 X160.356 Y168.307 E359.40516
G1 X160.203 Y168.38 E359.41362
G1 X160.156 Y168.4 E359.41616
G1 X139.654 Y168.4 E360.43901
G1 X140.062 Y168.592 E360.46151
G1 X140.312 Y168.697 E360.47504
G1 X140.573 Y168.8 E360.48904
G1 X159.227 Y168.8 E361.41969
G1 X159.218 Y168.804 E361.42018
G1 X159.218 Y168.805 E361.42023
G1 X159.104 Y168.849 E361.42633
G1 X158.301 Y169.136 E361.46887
G0 F240 X158.301 Y169.135
G1 F120 X158.166 Y169.18 E361.47597
G1 X158.096 Y169.2 E361.4796
G1 X141.707 Y169.2 E362.29725
G1 X142.081 Y169.32 E362.31685
G1 X142.351 Y169.397 E362.33085
G1 X143.175 Y169.6 E362.37319
G1 X156.561 Y169.6 E363.04102
G0 F240 X158.301 Y169.136
G1 F120 X158.301 Y169.135 E363.04107
G0 F240 X168.977 Y158.8
G1 F120 X168.989 Y158.771 E363.04264
G1 X169.091 Y158.486 E363.05774
G0 F240 X169.09 Y158.486
G1 F120 X169.117 Y158.4 E363.06224
G1 X130.807 Y158.4 E364.97353
G1 X130.773 Y158.303 E364.97866
G1 X130.734 Y158.177 E364.98524
G1 X130.684 Y158 E364.99442
G1 X169.245 Y158 E366.91823
G1 X169.368 Y157.616 E366.93835
G1 X169.371 Y157.6 E366.93916
G1 X130.571 Y157.6 E368.8749
G1 X130.491 Y157.316 E368.88962
G1 X130.462 Y157.2 E368.89559
G1 X169.47 Y157.2 E370.8417
G1 X169.569 Y156.8 E370.86226
G1 X130.377 Y156.8 E372.81756
G1 X130.294 Y156.4 E372.83794
G1 X169.662 Y156.4 E374.80202
G1 X169.689 Y156.271 E374.80859
G1 X169.73 Y156 E374.82227
G1 X130.214 Y156 E376.79373
G1 X130.203 Y155.937 E376.79692
G1 X130.157 Y155.6 E376.81389
G1 X169.791 Y155.6 E378.79124
G1 X169.852 Y155.2 E378.81142
G1 X130.103 Y155.2 E380.79451
G1 X130.071 Y154.962 E380.80649
G1 X130.061 Y154.864 E380.8114
G1 X130.056 Y154.8 E380.81461
G1 X169.913 Y154.8 E382.80308
G1 X169.936 Y154.651 E382.8106
G1 X169.947 Y154.541 E382.81612
G1 X169.953 Y154.4 E382.82316
G1 X130.03 Y154.4 E384.81492
G1 X130.003 Y154 E384.83493
G1 X169.973 Y154 E386.82904
G1 X169.992 Y153.6 E386.84902
G1 X129.983 Y153.6 E388.84507
G1 X129.983 Y153.58 E388.84607
G1 X129.977 Y153.2 E388.86503
G1 X170.012 Y153.2 E390.86239
G1 X170.018 Y153.085 E390.86813
